icons/svg/arrow-foward.svg

<svg width="24" height="24" viewBox="0 0 24 24" fill="none" xmlns="http://www.w3.org/2000/svg">
<path d="M4.25 18.2186C4.25 15.8674 4.25 14.6918 4.63329 13.7642C5.14668 12.5217 6.13364 11.5347 7.37614 11.0213C8.30377 10.638 9.47938 10.638 11.8306 10.638H19.75H20.1287M15.8934 5.78139L19.6893 9.57737C19.9822 9.87026 20.1287 10.2541 20.1287 10.638M15.8934 15.4947L19.6893 11.6987C19.9822 11.4058 20.1287 11.0219 20.1287 10.638" stroke="currentColor" stroke-width="1.5" stroke-linecap="round" stroke-linejoin="round"/>
</svg>

<svg xmlns="http://www.w3.org/2000/svg" width="24" height="24" fill="none" viewBox="0 0 24 24"><path stroke="currentColor" stroke-linecap="round" stroke-linejoin="round" stroke-width="1.5" d="M4.25 18.219c0-2.352 0-3.527.383-4.455a5.06 5.06 0 0 1 2.743-2.743c.928-.383 2.103-.383 4.455-.383h8.298m-4.236-4.857 3.796 3.796c.293.293.44.677.44 1.061m-4.236 4.857 3.796-3.796c.293-.293.44-.677.44-1.061"/></svg>
